svg/home_clock_outline.svg

<svg xmlns="http://www.w3.org/2000/svg" viewBox="0 0 24 24"><path d="m16.5 16.25 2.86 1.69-.75 1.22L15 17v-5h1.5zM23 16c0 3.87-3.13 7-7 7-2.38 0-4.47-1.19-5.74-3H4v-8H1l10-9 7 6.29c2.89.86 5 3.54 5 6.71M9.29 18c-.18-.63-.29-1.3-.29-2 0-3.46 2.5-6.32 5.8-6.89L11 5.69l-5 4.5V18zM21 16c0-2.76-2.24-5-5-5s-5 2.24-5 5 2.24 5 5 5 5-2.24 5-5"/></svg>

<svg xmlns="http://www.w3.org/2000/svg" id="mdi-home-clock-outline" viewBox="0 0 24 24"><path d="M16.5 16.25L19.36 17.94L18.61 19.16L15 17V12H16.5V16.25M23 16C23 19.87 19.87 23 16 23C13.62 23 11.53 21.81 10.26 20H4V12H1L11 3L18 9.29C20.89 10.15 23 12.83 23 16M9.29 18C9.11 17.37 9 16.7 9 16C9 12.54 11.5 9.68 14.8 9.11L11 5.69L6 10.19V18H9.29M21 16C21 13.24 18.76 11 16 11S11 13.24 11 16 13.24 21 16 21 21 18.76 21 16Z" /></svg>
